site/static/img/icon-easy-setup.svg

<svg width="36" height="25" viewBox="0 0 36 25" fill="none" xmlns="http://www.w3.org/2000/svg">
<path fill-rule="evenodd" clip-rule="evenodd" d="M20.375 19.6152L29.8436 12.1305L20.375 4.64592V-6.10352e-05L35.7212 12.1306L20.375 24.2612V19.6152Z" fill="url(#tile4_paint0)"></path>
<path opacity="0.6" fill-rule="evenodd" clip-rule="evenodd" d="M10.1875 19.6151L19.6561 12.1305L10.1875 4.64594V-6.10352e-05L25.5337 12.1306L10.1875 24.2612V19.6151Z" fill="url(#tile4_paint1)"></path>
<path opacity="0.2" fill-rule="evenodd" clip-rule="evenodd" d="M0 19.6152L9.46864 12.1306L0 4.64598V0L15.3462 12.1306L0 24.2613V19.6152Z" fill="url(#tile4_paint2)"></path>
<defs>
<linearGradient id="tile4_paint0" x1="32.0887" y1="24.3242" x2="16.7185" y2="13.0847" gradientUnits="userSpaceOnUse">
<stop stop-color="#5A34CB"></stop>
<stop offset="1" stop-color="#B634CB"></stop>
</linearGradient>
<linearGradient id="tile4_paint1" x1="25.5337" y1="26.0428" x2="8.00342" y2="23.5609" gradientUnits="userSpaceOnUse">
<stop offset="0.0260417" stop-color="#4512C7"></stop>
<stop offset="0.53125" stop-color="#38AAEA"></stop>
<stop offset="1" stop-color="#4EDB60"></stop>
</linearGradient>
<linearGradient id="tile4_paint2" x1="27.8675" y1="89.3256" x2="-10.7019" y2="86.1457" gradientUnits="userSpaceOnUse">
<stop offset="0.0260417" stop-color="#4512C7"></stop>
<stop offset="0.53125" stop-color="#59C3FF"></stop>
<stop offset="1" stop-color="#75FF86"></stop>
</linearGradient>
</defs>
</svg>

<svg width="36" height="25" fill="none" xmlns="http://www.w3.org/2000/svg"><path fill-rule="evenodd" clip-rule="evenodd" d="m20.375 19.615 9.469-7.484-9.469-7.485V0l15.346 12.13-15.346 12.131v-4.646Z" fill="url(#a)"/><path opacity=".6" fill-rule="evenodd" clip-rule="evenodd" d="m10.188 19.615 9.468-7.484-9.468-7.485V0l15.346 12.13-15.346 12.131v-4.646Z" fill="url(#b)"/><path opacity=".2" fill-rule="evenodd" clip-rule="evenodd" d="m0 19.615 9.469-7.484L0 4.646V0l15.346 12.13L0 24.262v-4.646Z" fill="url(#c)"/><defs><linearGradient id="a" x1="32.089" y1="24.324" x2="16.718" y2="13.085" gradientUnits="userSpaceOnUse"><stop stop-color="#5A34CB"/><stop offset="1" stop-color="#B634CB"/></linearGradient><linearGradient id="b" x1="25.534" y1="26.043" x2="8.003" y2="23.561" gradientUnits="userSpaceOnUse"><stop offset=".026" stop-color="#4512C7"/><stop offset=".531" stop-color="#38AAEA"/><stop offset="1" stop-color="#4EDB60"/></linearGradient><linearGradient id="c" x1="27.867" y1="89.326" x2="-10.702" y2="86.146" gradientUnits="userSpaceOnUse"><stop offset=".026" stop-color="#4512C7"/><stop offset=".531" stop-color="#59C3FF"/><stop offset="1" stop-color="#75FF86"/></linearGradient></defs></svg>
